panel/16/account-logged-in.svg

<?xml version="1.0" encoding="UTF-8" standalone="no"?>
<!-- Created with Inkscape (http://www.inkscape.org/) -->

<svg
   xmlns:dc="http://purl.org/dc/elements/1.1/"
   xmlns:cc="http://creativecommons.org/ns#"
   xmlns:rdf="http://www.w3.org/1999/02/22-rdf-syntax-ns#"
   xmlns:svg="http://www.w3.org/2000/svg"
   xmlns="http://www.w3.org/2000/svg"
   xmlns:xlink="http://www.w3.org/1999/xlink"
   xmlns:inkscape="http://www.inkscape.org/namespaces/inkscape"
   version="1.1"
   width="18"
   height="18"
   id="svg4188">
  <defs
     id="defs4190">
    <linearGradient
       x1="24"
       y1="44"
       x2="24"
       y2="3.8990016"
       id="linearGradient4078"
       xlink:href="#linearGradient3707-319-631-407-324-3-8"
       gradientUnits="userSpaceOnUse"
       gradientTransform="matrix(0.38465107,0,0,0.38465106,-1.231625,-1.2316257)" />
    <radialGradient
       cx="5.7800279"
       cy="8.4497671"
       r="19.99999"
       fx="5.7800279"
       fy="8.4497671"
       id="radialGradient4076"
       xlink:href="#linearGradient2867-449-88-871-390-598-476-591-434-148-57-177-3-8"
       gradientUnits="userSpaceOnUse"
       gradientTransform="matrix(0,0.89892574,-0.95095622,-1.6561642e-8,16.035401,-6.0146846)" />
    <linearGradient
       id="linearGradient2867-449-88-871-390-598-476-591-434-148-57-177-3-8">
      <stop
         id="stop3750-8-9"
         style="stop-color:#90dbec;stop-opacity:1"
         offset="0" />
      <stop
         id="stop3752-3-2"
         style="stop-color:#55c1ec;stop-opacity:1"
         offset="0.26238" />
      <stop
         id="stop3754-7-2"
         style="stop-color:#3689e6;stop-opacity:1"
         offset="0.704952" />
      <stop
         id="stop3756-9-3"
         style="stop-color:#2b63a0;stop-opacity:1"
         offset="1" />
    </linearGradient>
    <linearGradient
       id="linearGradient3707-319-631-407-324-3-8">
      <stop
         id="stop3760-7-3"
         style="stop-color:#185f9a;stop-opacity:1"
         offset="0" />
      <stop
         id="stop3762-8-4"
         style="stop-color:#599ec9;stop-opacity:1"
         offset="1" />
    </linearGradient>
    <linearGradient
       x1="7.8555918"
       y1="15.85593"
       x2="7.8555918"
       y2="-0.12225635"
       id="linearGradient4037"
       xlink:href="#linearGradient3707-319-631-407-324-3-8"
       gradientUnits="userSpaceOnUse"
       gradientTransform="translate(0,0.155436)" />
    <linearGradient
       id="linearGradient4011">
      <stop
         id="stop4013"
         style="stop-color:#ffffff;stop-opacity:1"
         offset="0" />
      <stop
         id="stop4015"
         style="stop-color:#ffffff;stop-opacity:0.23529412"
         offset="0.507761" />
      <stop
         id="stop4017"
         style="stop-color:#ffffff;stop-opacity:0.15686275"
         offset="0.83456558" />
      <stop
         id="stop4019"
         style="stop-color:#ffffff;stop-opacity:0.39215687"
         offset="1" />
    </linearGradient>
    <linearGradient
       x1="71.204407"
       y1="6.2375584"
       x2="71.204407"
       y2="44.340794"
       id="linearGradient3071"
       xlink:href="#linearGradient4011"
       gradientUnits="userSpaceOnUse"
       gradientTransform="matrix(0.35135136,0,0,0.35135136,-17.203671,-0.90930013)" />
    <linearGradient
       x1="71.204407"
       y1="6.2375584"
       x2="71.204407"
       y2="44.340794"
       id="linearGradient3316"
       xlink:href="#linearGradient4011"
       gradientUnits="userSpaceOnUse"
       gradientTransform="matrix(0.35135136,0,0,0.35135136,615.79633,-144.9093)" />
    <linearGradient
       x1="7.8555918"
       y1="15.85593"
       x2="7.8555918"
       y2="-0.12225635"
       id="linearGradient3319"
       xlink:href="#linearGradient3707-319-631-407-324-3-8"
       gradientUnits="userSpaceOnUse"
       gradientTransform="translate(633,-143.84456)" />
    <radialGradient
       cx="5.7800279"
       cy="8.4497671"
       r="19.99999"
       fx="5.7800279"
       fy="8.4497671"
       id="radialGradient3322"
       xlink:href="#linearGradient2867-449-88-871-390-598-476-591-434-148-57-177-3-8"
       gradientUnits="userSpaceOnUse"
       gradientTransform="matrix(0,0.89892574,-0.95095622,-1.6561642e-8,649.0354,-150.01468)" />
    <linearGradient
       x1="24"
       y1="44"
       x2="24"
       y2="3.8990016"
       id="linearGradient3324"
       xlink:href="#linearGradient3707-319-631-407-324-3-8"
       gradientUnits="userSpaceOnUse"
       gradientTransform="matrix(0.38465107,0,0,0.38465106,631.76837,-145.23163)" />
    <linearGradient
       x1="7.8555918"
       y1="15.85593"
       x2="7.8555918"
       y2="-0.12225635"
       id="linearGradient3319-7"
       xlink:href="#linearGradient3707-319-631-407-324-3-8-2"
       gradientUnits="userSpaceOnUse"
       gradientTransform="translate(633,-143.84456)" />
    <linearGradient
       id="linearGradient3707-319-631-407-324-3-8-2">
      <stop
         id="stop3760-7-3-0"
         style="stop-color:#185f9a;stop-opacity:1"
         offset="0" />
      <stop
         id="stop3762-8-4-7"
         style="stop-color:#599ec9;stop-opacity:1"
         offset="1" />
    </linearGradient>
    <linearGradient
       id="linearGradient4011-5">
      <stop
         id="stop4013-6"
         style="stop-color:#ffffff;stop-opacity:1"
         offset="0" />
      <stop
         id="stop4015-1"
         style="stop-color:#ffffff;stop-opacity:0.23529412"
         offset="0.507761" />
      <stop
         id="stop4017-4"
         style="stop-color:#ffffff;stop-opacity:0.15686275"
         offset="0.83456558" />
      <stop
         id="stop4019-3"
         style="stop-color:#ffffff;stop-opacity:0.39215687"
         offset="1" />
    </linearGradient>
    <linearGradient
       x1="71.204407"
       y1="6.2375584"
       x2="71.204407"
       y2="44.340794"
       id="linearGradient3414"
       xlink:href="#linearGradient4011-5"
       gradientUnits="userSpaceOnUse"
       gradientTransform="matrix(0.35135136,0,0,0.35135136,615.79633,-144.9093)" />
    <linearGradient
       x1="7.8555918"
       y1="15.85593"
       x2="7.8555918"
       y2="-0.12225635"
       id="linearGradient3439"
       xlink:href="#linearGradient3707-319-631-407-324-3-8-2"
       gradientUnits="userSpaceOnUse"
       gradientTransform="translate(633,-143.84456)" />
    <linearGradient
       x1="7.8555918"
       y1="15.85593"
       x2="7.8555918"
       y2="-0.12225635"
       id="linearGradient4295"
       xlink:href="#linearGradient3707-319-631-407-324-3-8-2"
       gradientUnits="userSpaceOnUse"
       gradientTransform="translate(633,-143.84456)" />
    <linearGradient
       x1="7.8555918"
       y1="15.85593"
       x2="7.8555918"
       y2="-0.12225635"
       id="linearGradient4297"
       xlink:href="#linearGradient3707-319-631-407-324-3-8-2"
       gradientUnits="userSpaceOnUse"
       gradientTransform="translate(633,-143.84456)" />
  </defs>
  <metadata
     id="metadata4193">
    <rdf:RDF>
      <cc:Work
         rdf:about="">
        <dc:format>image/svg+xml</dc:format>
        <dc:type
           rdf:resource="http://purl.org/dc/dcmitype/StillImage" />
        <dc:title />
      </cc:Work>
    </rdf:RDF>
  </metadata>
  <g
     transform="translate(-632,145)"
     id="layer1">
    <path
       d="m 641,-143.5 c -4.13824,0 -7.5,3.36176 -7.5,7.5 0,4.13824 3.36176,7.5 7.5,7.5 4.13824,0 7.5,-3.36176 7.5,-7.5 0,-4.13824 -3.36176,-7.5 -7.5,-7.5 z"
       inkscape:connector-curvature="0"
       id="path2555-7"
       style="color:#000000;fill:url(#radialGradient3322);fill-opacity:1;fill-rule:nonzero;stroke:url(#linearGradient3324);stroke-width:0.99999994;stroke-linecap:round;stroke-linejoin:round;stroke-miterlimit:4;stroke-opacity:1;stroke-dasharray:none;stroke-dashoffset:0;marker:none;visibility:visible;display:inline;overflow:visible;enable-background:accumulate" />
    <path
       d="m 647.5,-136.00023 c 0,3.58997 -2.91036,6.50023 -6.49992,6.50023 -3.58988,0 -6.50008,-2.9103 -6.50008,-6.50023 0,-3.5898 2.9102,-6.49977 6.50008,-6.49977 3.58956,0 6.49992,2.90997 6.49992,6.49977 l 0,0 z"
       inkscape:connector-curvature="0"
       id="path8655-6"
       style="opacity:0.5;color:#000000;fill:none;stroke:url(#linearGradient3316);stroke-width:0.99999994;stroke-linecap:round;stroke-linejoin:round;stroke-miterlimit:4;stroke-opacity:1;stroke-dasharray:none;stroke-dashoffset:0;marker:none;visibility:visible;display:inline;overflow:visible;enable-background:accumulate" />
    <path
       d="M 13.21875,3.40625 A 2.0402886,2.0402886 0 0 0 13.125,3.5 l -4.1875,4.5625 -1.5,-1.5 a 2.0402886,2.0402886 0 0 0 -2.875,0 l -2,2 a 2.0402886,2.0402886 0 0 0 -0.53125,0.875 2.0402886,2.0402886 0 0 0 0,0.0625 c 0.041073,0.581606 0.1379501,1.153759 0.3125,1.6875 a 2.0402886,2.0402886 0 0 0 0.375,0.40625 l 5,4 a 2.0402886,2.0402886 0 0 0 0.71875,0.375 c 0.020551,0.0016 0.041899,-0.0015 0.0625,0 A 2.0402886,2.0402886 0 0 0 8.625,16 c 0.1241935,0.0066 0.2491729,0 0.375,0 0.178711,0 0.3559046,-0.01809 0.53125,-0.03125 A 2.0402886,2.0402886 0 0 0 10.5,15.375 L 15.96875,9.5 C 15.98042,9.3347445 16,9.1682254 16,9 16,6.7214486 14.904307,4.6844785 13.21875,3.40625 z"
       inkscape:connector-curvature="0"
       transform="translate(632,-145)"
       id="path4318-6"
       style="opacity:0.1;color:#000000;fill:#185f9a;fill-opacity:1;fill-rule:nonzero;stroke:none;stroke-width:0.84323651;marker:none;visibility:visible;display:inline;overflow:visible;enable-background:accumulate" />
    <path
       d="m 14.03125,4.15625 a 0.94895148,0.94895148 0 0 0 -0.09375,0.0625 l -4.96875,5.4375 -2.3125,-2.3125 a 0.94895148,0.94895148 0 0 0 -1.3125,0 l -2,2 A 0.94895148,0.94895148 0 0 0 3.40625,10.75 l 5,4 A 0.94895148,0.94895148 0 0 0 9.6875,14.65625 l 6.21875,-6.6875 c -0.218501,-1.473701 -0.888095,-2.7885095 -1.875,-3.8125 z"
       inkscape:connector-curvature="0"
       transform="translate(632,-145)"
       id="path4318"
       style="opacity:0.25;color:#000000;fill:#185f9a;fill-opacity:1;fill-rule:nonzero;stroke:none;stroke-width:0.84323651;marker:none;visibility:visible;display:inline;overflow:visible;enable-background:accumulate" />
    <path
       d="M 646.625,-140.125 641,-134 l -3,-3 -2,2 5,4 6.65625,-7.15625 z"
       inkscape:connector-curvature="0"
       id="path2922-6-6-0"
       style="color:#000000;fill:#ffffff;fill-opacity:1;fill-rule:nonzero;stroke:none;stroke-width:0.84323651;marker:none;visibility:visible;display:inline;overflow:visible;enable-background:accumulate" />
  </g>
</svg>

<?xml version="1.0" encoding="UTF-8" standalone="no"?>
<!-- Created with Inkscape (http://www.inkscape.org/) -->

<svg
   xmlns:dc="http://purl.org/dc/elements/1.1/"
   xmlns:cc="http://creativecommons.org/ns#"
   xmlns:rdf="http://www.w3.org/1999/02/22-rdf-syntax-ns#"
   xmlns:svg="http://www.w3.org/2000/svg"
   xmlns="http://www.w3.org/2000/svg"
   xmlns:xlink="http://www.w3.org/1999/xlink"
   xmlns:sodipodi="http://sodipodi.sourceforge.net/DTD/sodipodi-0.dtd"
   xmlns:inkscape="http://www.inkscape.org/namespaces/inkscape"
   width="18"
   height="18"
   id="svg4188"
   version="1.1"
   inkscape:version="0.48.3.1 r9886"
   sodipodi:docname="account-logged-in.svg"
   inkscape:export-filename="/home/daniel/answered.png"
   inkscape:export-xdpi="90"
   inkscape:export-ydpi="90">
  <sodipodi:namedview
     id="base"
     pagecolor="#dcdcdc"
     bordercolor="#666666"
     borderopacity="1.0"
     inkscape:pageopacity="0"
     inkscape:pageshadow="2"
     inkscape:zoom="23.20974"
     inkscape:cx="7.8118279"
     inkscape:cy="6.062724"
     inkscape:current-layer="layer1"
     showgrid="true"
     inkscape:grid-bbox="true"
     inkscape:document-units="px"
     inkscape:window-width="1280"
     inkscape:window-height="752"
     inkscape:window-x="0"
     inkscape:window-y="26"
     inkscape:window-maximized="1"
     showguides="true"
     inkscape:guide-bbox="true"
     fit-margin-top="0"
     fit-margin-left="0"
     fit-margin-right="0"
     fit-margin-bottom="0">
    <inkscape:grid
       type="xygrid"
       id="grid6334"
       empspacing="5"
       visible="true"
       enabled="true"
       snapvisiblegridlinesonly="true" />
  </sodipodi:namedview>
  <defs
     id="defs4190">
    <linearGradient
       inkscape:collect="always"
       xlink:href="#linearGradient3707-319-631-407-324-3-8"
       id="linearGradient4078"
       gradientUnits="userSpaceOnUse"
       gradientTransform="matrix(0.38465107,0,0,0.38465106,-1.231625,-1.2316257)"
       x1="24"
       y1="44"
       x2="24"
       y2="3.8990016" />
    <radialGradient
       inkscape:collect="always"
       xlink:href="#linearGradient2867-449-88-871-390-598-476-591-434-148-57-177-3-8"
       id="radialGradient4076"
       gradientUnits="userSpaceOnUse"
       gradientTransform="matrix(0,0.89892574,-0.95095622,-1.6561642e-8,16.035401,-6.0146846)"
       cx="5.7800279"
       cy="8.4497671"
       fx="5.7800279"
       fy="8.4497671"
       r="19.99999" />
    <linearGradient
       id="linearGradient2867-449-88-871-390-598-476-591-434-148-57-177-3-8">
      <stop
         offset="0"
         style="stop-color:#90dbec;stop-opacity:1;"
         id="stop3750-8-9" />
      <stop
         offset="0.26238"
         style="stop-color:#55c1ec;stop-opacity:1;"
         id="stop3752-3-2" />
      <stop
         offset="0.704952"
         style="stop-color:#3689e6;stop-opacity:1;"
         id="stop3754-7-2" />
      <stop
         offset="1"
         style="stop-color:#2b63a0;stop-opacity:1;"
         id="stop3756-9-3" />
    </linearGradient>
    <linearGradient
       id="linearGradient3707-319-631-407-324-3-8">
      <stop
         offset="0"
         style="stop-color:#185f9a;stop-opacity:1;"
         id="stop3760-7-3" />
      <stop
         offset="1"
         style="stop-color:#599ec9;stop-opacity:1;"
         id="stop3762-8-4" />
    </linearGradient>
    <linearGradient
       gradientTransform="translate(0,0.155436)"
       y2="-0.12225635"
       x2="7.8555918"
       y1="15.85593"
       x1="7.8555918"
       gradientUnits="userSpaceOnUse"
       id="linearGradient4037"
       xlink:href="#linearGradient3707-319-631-407-324-3-8"
       inkscape:collect="always" />
    <linearGradient
       id="linearGradient4011">
      <stop
         offset="0"
         style="stop-color:#ffffff;stop-opacity:1;"
         id="stop4013" />
      <stop
         id="stop4015"
         style="stop-color:#ffffff;stop-opacity:0.23529412;"
         offset="0.507761" />
      <stop
         offset="0.83456558"
         style="stop-color:#ffffff;stop-opacity:0.15686275;"
         id="stop4017" />
      <stop
         offset="1"
         style="stop-color:#ffffff;stop-opacity:0.39215687;"
         id="stop4019" />
    </linearGradient>
    <linearGradient
       y2="44.340794"
       x2="71.204407"
       y1="6.2375584"
       x1="71.204407"
       gradientTransform="matrix(0.35135136,0,0,0.35135136,-17.203671,-0.90930013)"
       gradientUnits="userSpaceOnUse"
       id="linearGradient3071"
       xlink:href="#linearGradient4011"
       inkscape:collect="always" />
    <linearGradient
       inkscape:collect="always"
       xlink:href="#linearGradient4011"
       id="linearGradient3316"
       gradientUnits="userSpaceOnUse"
       gradientTransform="matrix(0.35135136,0,0,0.35135136,615.79633,-144.9093)"
       x1="71.204407"
       y1="6.2375584"
       x2="71.204407"
       y2="44.340794" />
    <linearGradient
       inkscape:collect="always"
       xlink:href="#linearGradient3707-319-631-407-324-3-8"
       id="linearGradient3319"
       gradientUnits="userSpaceOnUse"
       gradientTransform="translate(633,-143.84456)"
       x1="7.8555918"
       y1="15.85593"
       x2="7.8555918"
       y2="-0.12225635" />
    <radialGradient
       inkscape:collect="always"
       xlink:href="#linearGradient2867-449-88-871-390-598-476-591-434-148-57-177-3-8"
       id="radialGradient3322"
       gradientUnits="userSpaceOnUse"
       gradientTransform="matrix(0,0.89892574,-0.95095622,-1.6561642e-8,649.0354,-150.01468)"
       cx="5.7800279"
       cy="8.4497671"
       fx="5.7800279"
       fy="8.4497671"
       r="19.99999" />
    <linearGradient
       inkscape:collect="always"
       xlink:href="#linearGradient3707-319-631-407-324-3-8"
       id="linearGradient3324"
       gradientUnits="userSpaceOnUse"
       gradientTransform="matrix(0.38465107,0,0,0.38465106,631.76837,-145.23163)"
       x1="24"
       y1="44"
       x2="24"
       y2="3.8990016" />
    <linearGradient
       inkscape:collect="always"
       xlink:href="#linearGradient3707-319-631-407-324-3-8-2"
       id="linearGradient3319-7"
       gradientUnits="userSpaceOnUse"
       gradientTransform="translate(633,-143.84456)"
       x1="7.8555918"
       y1="15.85593"
       x2="7.8555918"
       y2="-0.12225635" />
    <linearGradient
       id="linearGradient3707-319-631-407-324-3-8-2">
      <stop
         offset="0"
         style="stop-color:#185f9a;stop-opacity:1;"
         id="stop3760-7-3-0" />
      <stop
         offset="1"
         style="stop-color:#599ec9;stop-opacity:1;"
         id="stop3762-8-4-7" />
    </linearGradient>
    <linearGradient
       id="linearGradient4011-5">
      <stop
         offset="0"
         style="stop-color:#ffffff;stop-opacity:1;"
         id="stop4013-6" />
      <stop
         id="stop4015-1"
         style="stop-color:#ffffff;stop-opacity:0.23529412;"
         offset="0.507761" />
      <stop
         offset="0.83456558"
         style="stop-color:#ffffff;stop-opacity:0.15686275;"
         id="stop4017-4" />
      <stop
         offset="1"
         style="stop-color:#ffffff;stop-opacity:0.39215687;"
         id="stop4019-3" />
    </linearGradient>
    <linearGradient
       y2="44.340794"
       x2="71.204407"
       y1="6.2375584"
       x1="71.204407"
       gradientTransform="matrix(0.35135136,0,0,0.35135136,615.79633,-144.9093)"
       gradientUnits="userSpaceOnUse"
       id="linearGradient3414"
       xlink:href="#linearGradient4011-5"
       inkscape:collect="always" />
    <linearGradient
       inkscape:collect="always"
       xlink:href="#linearGradient3707-319-631-407-324-3-8-2"
       id="linearGradient3439"
       gradientUnits="userSpaceOnUse"
       gradientTransform="translate(633,-143.84456)"
       x1="7.8555918"
       y1="15.85593"
       x2="7.8555918"
       y2="-0.12225635" />
    <linearGradient
       inkscape:collect="always"
       xlink:href="#linearGradient3707-319-631-407-324-3-8-2"
       id="linearGradient4295"
       gradientUnits="userSpaceOnUse"
       gradientTransform="translate(633,-143.84456)"
       x1="7.8555918"
       y1="15.85593"
       x2="7.8555918"
       y2="-0.12225635" />
    <linearGradient
       inkscape:collect="always"
       xlink:href="#linearGradient3707-319-631-407-324-3-8-2"
       id="linearGradient4297"
       gradientUnits="userSpaceOnUse"
       gradientTransform="translate(633,-143.84456)"
       x1="7.8555918"
       y1="15.85593"
       x2="7.8555918"
       y2="-0.12225635" />
  </defs>
  <metadata
     id="metadata4193">
    <rdf:RDF>
      <cc:Work
         rdf:about="">
        <dc:format>image/svg+xml</dc:format>
        <dc:type
           rdf:resource="http://purl.org/dc/dcmitype/StillImage" />
        <dc:title />
      </cc:Work>
    </rdf:RDF>
  </metadata>
  <g
     id="layer1"
     inkscape:label="Layer 1"
     inkscape:groupmode="layer"
     transform="translate(-632,145)">
    <path
       inkscape:connector-curvature="0"
       style="color:#000000;fill:url(#radialGradient3322);fill-opacity:1;fill-rule:nonzero;stroke:url(#linearGradient3324);stroke-width:0.99999994;stroke-linecap:round;stroke-linejoin:round;stroke-miterlimit:4;stroke-opacity:1;stroke-dasharray:none;stroke-dashoffset:0;marker:none;visibility:visible;display:inline;overflow:visible;enable-background:accumulate"
       id="path2555-7"
       d="m 641,-143.5 c -4.13824,0 -7.5,3.36176 -7.5,7.5 0,4.13824 3.36176,7.5 7.5,7.5 4.13824,0 7.5,-3.36176 7.5,-7.5 0,-4.13824 -3.36176,-7.5 -7.5,-7.5 z" />
    <path
       inkscape:connector-curvature="0"
       style="opacity:0.5;color:#000000;fill:none;stroke:url(#linearGradient3316);stroke-width:0.99999994;stroke-linecap:round;stroke-linejoin:round;stroke-miterlimit:4;stroke-opacity:1;stroke-dasharray:none;stroke-dashoffset:0;marker:none;visibility:visible;display:inline;overflow:visible;enable-background:accumulate"
       id="path8655-6"
       d="m 647.5,-136.00023 c 0,3.58997 -2.91036,6.50023 -6.49992,6.50023 -3.58988,0 -6.50008,-2.9103 -6.50008,-6.50023 0,-3.5898 2.9102,-6.49977 6.50008,-6.49977 3.58956,0 6.49992,2.90997 6.49992,6.49977 l 0,0 z" />
    <path
       style="opacity:0.1;color:#000000;fill:#185f9a;fill-opacity:1;fill-rule:nonzero;stroke:none;stroke-width:0.84323650999999999;marker:none;visibility:visible;display:inline;overflow:visible;enable-background:accumulate"
       d="M 13.21875 3.40625 A 2.0402886 2.0402886 0 0 0 13.125 3.5 L 8.9375 8.0625 L 7.4375 6.5625 A 2.0402886 2.0402886 0 0 0 4.5625 6.5625 L 2.5625 8.5625 A 2.0402886 2.0402886 0 0 0 2.03125 9.4375 A 2.0402886 2.0402886 0 0 0 2.03125 9.5 C 2.0723234 10.081606 2.1692001 10.653759 2.34375 11.1875 A 2.0402886 2.0402886 0 0 0 2.71875 11.59375 L 7.71875 15.59375 A 2.0402886 2.0402886 0 0 0 8.4375 15.96875 C 8.4580513 15.970383 8.479399 15.967295 8.5 15.96875 A 2.0402886 2.0402886 0 0 0 8.625 16 C 8.7491935 16.006557 8.8741729 16 9 16 C 9.178711 16 9.3559046 15.981907 9.53125 15.96875 A 2.0402886 2.0402886 0 0 0 10.5 15.375 L 15.96875 9.5 C 15.98042 9.3347445 16 9.1682254 16 9 C 16 6.7214486 14.904307 4.6844785 13.21875 3.40625 z "
       id="path4318-6"
       transform="translate(632,-145)" />
    <path
       style="color:#000000;fill:#185f9a;fill-opacity:1;fill-rule:nonzero;stroke:none;stroke-width:0.84323650999999999;marker:none;visibility:visible;display:inline;overflow:visible;enable-background:accumulate;opacity:0.25"
       d="M 14.03125 4.15625 A 0.94895148 0.94895148 0 0 0 13.9375 4.21875 L 8.96875 9.65625 L 6.65625 7.34375 A 0.94895148 0.94895148 0 0 0 5.34375 7.34375 L 3.34375 9.34375 A 0.94895148 0.94895148 0 0 0 3.40625 10.75 L 8.40625 14.75 A 0.94895148 0.94895148 0 0 0 9.6875 14.65625 L 15.90625 7.96875 C 15.687749 6.495049 15.018155 5.1802405 14.03125 4.15625 z "
       transform="translate(632,-145)"
       id="path4318" />
    <path
       sodipodi:nodetypes="ccccccc"
       inkscape:connector-curvature="0"
       style="color:#000000;fill:#ffffff;fill-opacity:1;fill-rule:nonzero;stroke:none;stroke-width:0.84323651;marker:none;visibility:visible;display:inline;overflow:visible;enable-background:accumulate"
       id="path2922-6-6-0"
       d="M 646.625,-140.125 641,-134 l -3,-3 -2,2 5,4 6.65625,-7.15625 z" />
  </g>
</svg>
